src/2-landmarks/service-module--sit-side.svg

<svg width="1300" height="1000" viewBox="0 0 1300 1000" fill="none" xmlns="http://www.w3.org/2000/svg"><path fill-rule="evenodd" clip-rule="evenodd" d="M999.649 333.086c-3.769 1.408-10.807 1.91-12.649 1.914 0 0-8.301-.069-13.135-1.914-5.448-2.079-8.483-4.109-12.162-8.575-2.49-3.022-4.438-8.223-5.322-10.853-.362-1.079-.611-2.188-.801-3.31l-4.093-24.154s-.495-3.492-.487-5.742c.02-5.351.746-8.493 2.919-13.398 2.232-5.038 4.185-7.735 8.27-11.484 4.356-3.996 7.495-5.742 13.135-7.625 4.38-1.462 7.052-1.907 11.676-1.945 4.963.167 6.811.479 11.548 1.945 4.742 1.577 9.582 4.373 13.262 7.625 3.68 3.252 6.26 7.101 8.27 11.484s2.92 8.615 2.92 13.398c0 1.803-.2 3.959-.49 5.742l-4.86 23.833a25.09 25.09 0 0 1-1.01 3.617c-1.04 2.793-3.21 8.177-5.32 10.829-2.92 3.676-7.16 6.929-11.671 8.613Zm-2.46-6.699c-3.036 1.186-8.705 1.609-10.189 1.613 0 0-6.687-.058-10.581-1.613-4.389-1.752-6.834-3.462-9.797-7.226-1.949-2.474-3.485-6.68-4.224-8.951-.338-1.039-.567-2.105-.741-3.184l-3.265-20.155s-.399-2.943-.392-4.839c.016-4.509.601-7.156 2.351-11.29 1.799-4.246 3.371-6.518 6.663-9.677 3.508-3.368 6.037-4.839 10.581-6.426 3.527-1.232 5.68-1.607 9.405-1.639 3.998.141 5.487.403 9.302 1.639 3.818 1.329 7.718 3.685 10.688 6.426 2.96 2.74 5.04 5.983 6.66 9.677s2.35 7.26 2.35 11.29c0 1.52-.16 3.337-.39 4.839l-3.88 19.862a24.563 24.563 0 0 1-.93 3.486c-.87 2.407-2.56 6.742-4.21 8.91-2.35 3.098-5.77 5.839-9.401 7.258ZM1066 376c17.52 36.035 23.43 91.5 23.43 93.163 0 9.783-.19 20.339-.47 30.837h90.54c11.32 0 20.5 9.178 20.5 20.5 0 11.155-8.91 20.229-20 20.494V900h120v100H0V900h349V700.901c-10.107-1.003-18-9.53-18-19.901v-87.5c0-6.904 5.596-12.5 12.5-12.5s12.5 5.596 12.5 12.5V671a5 5 0 0 0 5 5h107.5c6.904 0 12.5 5.596 12.5 12.5s-5.596 12.5-12.5 12.5H461v199h327V540.994c-11.091-.265-20-9.339-20-20.494 0-11.322 9.178-20.5 20.5-20.5h91.454c-.282-10.498-.464-21.054-.464-30.837 0-1.663 5.902-57.128 23.43-93.163 15.036-29.151 42.836-34.537 82.897-34.979 40.123.434 65.133 5.804 80.183 34.979ZM887.582 500l-.106-27.529h.01s4.44-56.684 20.98-91.956c14.201-28.557 39.38-32.069 77.351-32.494 37.733.446 60.483 4.044 74.633 32.494 16.54 35.272 20.98 91.956 20.98 91.956h.01l-.11 27.529h-30.01l-2.81-30.909-7.46-50.009a1.234 1.234 0 0 0-1.21-1.07 1.235 1.235 0 0 0-1.24 1.324L1042 488l1.2 12H925.716l1.2-12 3.395-68.664a1.228 1.228 0 0 0-2.442-.254l-7.463 50.009-2.81 30.909h-30.014ZM788.5 534h391c7.46 0 13.5-6.044 13.5-13.5s-6.04-13.5-13.5-13.5h-391c-7.456 0-13.5 6.044-13.5 13.5s6.044 13.5 13.5 13.5Zm384.5 7H795v359h378V541ZM454 900h-98V701h98v199Zm14.5-217a5.5 5.5 0 1 1 0 11H353c-8.284 0-15-6.716-15-15v-85.5a5.5 5.5 0 0 1 11 0V673c0 5.523 4.477 10 10 10h109.5Z" fill="#000"/></svg>

<svg width="1300" height="1000" viewBox="0 0 1300 1000" fill="none" xmlns="http://www.w3.org/2000/svg">
<path fill-rule="evenodd" clip-rule="evenodd" d="M999.649 333.086C995.88 334.494 988.842 334.996 987 335C987 335 978.699 334.931 973.865 333.086C968.417 331.007 965.382 328.977 961.703 324.511C959.213 321.489 957.265 316.288 956.381 313.658C956.019 312.579 955.77 311.47 955.58 310.348L951.487 286.194C951.487 286.194 950.992 282.702 951 280.452C951.02 275.101 951.746 271.959 953.919 267.054C956.151 262.016 958.104 259.319 962.189 255.57C966.545 251.574 969.684 249.828 975.324 247.945C979.704 246.483 982.376 246.038 987 246C991.963 246.167 993.811 246.479 998.548 247.945C1003.29 249.522 1008.13 252.318 1011.81 255.57C1015.49 258.822 1018.07 262.671 1020.08 267.054C1022.09 271.437 1023 275.669 1023 280.452C1023 282.255 1022.8 284.411 1022.51 286.194L1017.65 310.027C1017.4 311.256 1017.07 312.468 1016.64 313.644C1015.6 316.437 1013.43 321.821 1011.32 324.473C1008.4 328.149 1004.16 331.402 999.649 333.086ZM997.189 326.387C994.153 327.573 988.484 327.996 987 328C987 328 980.313 327.942 976.419 326.387C972.03 324.635 969.585 322.925 966.622 319.161C964.673 316.687 963.137 312.481 962.398 310.21C962.06 309.171 961.831 308.105 961.657 307.026L958.392 286.871C958.392 286.871 957.993 283.928 958 282.032C958.016 277.523 958.601 274.876 960.351 270.742C962.15 266.496 963.722 264.224 967.014 261.065C970.522 257.697 973.051 256.226 977.595 254.639C981.122 253.407 983.275 253.032 987 253C990.998 253.141 992.487 253.403 996.302 254.639C1000.12 255.968 1004.02 258.324 1006.99 261.065C1009.95 263.805 1012.03 267.048 1013.65 270.742C1015.27 274.436 1016 278.002 1016 282.032C1016 283.552 1015.84 285.369 1015.61 286.871L1011.73 306.733C1011.5 307.917 1011.2 309.084 1010.8 310.219C1009.93 312.626 1008.24 316.961 1006.59 319.129C1004.24 322.227 1000.82 324.968 997.189 326.387Z" fill="black"/>
<path fill-rule="evenodd" clip-rule="evenodd" d="M1066 376C1083.52 412.035 1089.43 467.5 1089.43 469.163C1089.43 478.946 1089.24 489.502 1088.96 500H1179.5C1190.82 500 1200 509.178 1200 520.5C1200 531.655 1191.09 540.729 1180 540.994V900H1300V1000H0V900H349V700.901C338.893 699.898 331 691.371 331 681V593.5C331 586.596 336.596 581 343.5 581C350.404 581 356 586.596 356 593.5V671C356 673.761 358.239 676 361 676H468.5C475.404 676 481 681.596 481 688.5C481 695.404 475.404 701 468.5 701H461V900H788V540.994C776.909 540.729 768 531.655 768 520.5C768 509.178 777.178 500 788.5 500H879.954C879.672 489.502 879.49 478.946 879.49 469.163C879.49 467.5 885.392 412.035 902.92 376C917.956 346.849 945.756 341.463 985.817 341.021C1025.94 341.455 1050.95 346.825 1066 376ZM887.582 500L887.476 472.471H887.486C887.486 472.471 891.926 415.787 908.466 380.515C922.667 351.958 947.846 348.446 985.817 348.021C1023.55 348.467 1046.3 352.065 1060.45 380.515C1076.99 415.787 1081.43 472.471 1081.43 472.471H1081.44L1081.33 500H1051.32L1048.51 469.091L1041.05 419.082C1040.97 418.474 1040.45 418.017 1039.84 418.012C1039.12 418.005 1038.55 418.618 1038.6 419.336L1042 488L1043.2 500H925.716L926.916 488L930.311 419.336C930.367 418.618 929.796 418.005 929.076 418.012C928.463 418.017 927.947 418.474 927.869 419.082L920.406 469.091L917.596 500H887.582ZM788.5 534H1179.5C1186.96 534 1193 527.956 1193 520.5C1193 513.044 1186.96 507 1179.5 507H788.5C781.044 507 775 513.044 775 520.5C775 527.956 781.044 534 788.5 534ZM1173 541H795V900H1173V541ZM454 900H356V701H454V900ZM468.5 683C471.538 683 474 685.462 474 688.5C474 691.538 471.538 694 468.5 694H353C344.716 694 338 687.284 338 679V593.5C338 590.462 340.463 588 343.5 588C346.538 588 349 590.462 349 593.5V673C349 678.523 353.477 683 359 683H468.5Z" fill="black"/>
</svg>
